public/assets/images/icons/green/classbook.svg

<svg width="16" height="16" xmlns="http://www.w3.org/2000/svg" viewBox="0 0 16 16" shape-rendering="geometricPrecision" fill="#00962d"><path d="M14.55 13.121L14.539 0H4.094C2.718.003 1.596.619 1.573 1.987c-.003.025-.003.529 0 .535v.003c0 .04.009.076.011.117h-.009v10.826A2.532 2.532 0 0 0 4.104 16h8.386l-.038-1.689-.009-11.345h-8.35c-.496 0-1.68-.048-1.68-.979v-.094C2.464 1.008 3.597.841 4.093.841h9.593V13.12h.864zm-2.899-2.232v1.746H6.375v-1.746c0-.738.601-1.342 1.339-1.342h2.594c.738 0 1.343.603 1.343 1.342zM9.013 6.101a1.393 1.393 0 1 1 .004 2.786 1.393 1.393 0 0 1-.004-2.786zm-3.638 0a1.392 1.392 0 1 1 0 2.786 1.393 1.393 0 1 1 0-2.786zm-2.637 4.788c0-.738.6-1.342 1.339-1.342H6.06a2.13 2.13 0 0 0-.485 1.342v1.746H2.738v-1.746z"/></svg>

<?xml version="1.0"?><!DOCTYPE svg PUBLIC "-//W3C//DTD SVG 1.1//EN" "http://www.w3.org/Graphics/SVG/1.1/DTD/svg11.dtd"><svg width="16px" height="16px" xmlns="http://www.w3.org/2000/svg" viewBox="0 0 16 16" shape-rendering="geometricPrecision" fill="#00962d"><path d="M14.55,13.121L14.539,0H4.094C2.718,0.003,1.596,0.619,1.573,1.987 c-0.003,0.025-0.003,0.529,0,0.535v0.003c0,0.04,0.009,0.076,0.011,0.117H1.575v10.826C1.575,14.865,2.708,16,4.104,16h8.386 l-0.038-1.689L12.443,2.966h-8.35c-0.496,0-1.68-0.048-1.68-0.979V1.893c0.051-0.885,1.184-1.052,1.68-1.052h9.593v12.279H14.55z M11.651,10.889v1.746H6.375v-1.746c0-0.738,0.601-1.342,1.339-1.342h2.594C11.046,9.547,11.651,10.15,11.651,10.889z M9.013,6.101 c0.771,0,1.395,0.623,1.395,1.393c0,0.77-0.623,1.393-1.395,1.393c-0.77,0-1.393-0.623-1.393-1.393 C7.62,6.724,8.243,6.101,9.013,6.101z M5.375,6.101c0.771,0,1.394,0.623,1.394,1.393c0,0.77-0.623,1.393-1.394,1.393 c-0.769,0-1.393-0.623-1.393-1.393C3.982,6.724,4.606,6.101,5.375,6.101z M2.738,10.889c0-0.738,0.6-1.342,1.339-1.342H6.06 c-0.299,0.369-0.484,0.832-0.485,1.342v1.746H2.738V10.889z"/></svg>
